X: 19
T:Dusty Miller's Reel
R:Reel
M:4/4
L:1/8
K:A
A2|A,2CE D2FA|E2GB A2cA|BEcE dEcE|BEcB AFEC|
A,2CE D2FA|E2GB A2ce|fefg agaf|ecBc A2:|
|:(3efg|a2ga fece|b2bg agfe|gebe gbeg|fe^df e2(3efg|
a2ga fece|fgag fece|fdge afed|cABG A2:|
